svgs/sharp-regular/database.svg

<svg xmlns="http://www.w3.org/2000/svg" viewBox="0 0 448 512"><!--! Font Awesome Pro 6.6.0 by @fontawesome - https://fontawesome.com License - https://fontawesome.com/license (Commercial License) Copyright 2024 Fonticons, Inc. --><path d="M48 206l0 50 0 21.4L141.8 336l164.5 0L400 277.4l0-21.4 0-50-80 50-192 0L48 206zM0 176l0-48L0 80 128 0 320 0 448 80l0 48 0 48 0 80 0 48 0 128L320 512l-192 0L0 432 0 304l0-48 0-80zm400-48l0-21.4L306.2 48 141.8 48 48 106.6 48 128l0 21.4L141.8 208l164.5 0L400 149.4l0-21.4zM48 405.4L141.8 464l164.5 0L400 405.4l0-71.4-80 50-192 0L48 334l0 71.4z"/></svg>

<svg xmlns="http://www.w3.org/2000/svg" viewBox="0 0 448 512"><!--! Font Awesome Pro 6.4.0 by @fontawesome - https://fontawesome.com License - https://fontawesome.com/license (Commercial License) Copyright 2023 Fonticons, Inc. --><path d="M48 206v50 21.4L141.8 336H306.2L400 277.4V256 206l-80 50H128L48 206zM0 176V128 80L128 0H320L448 80v48 48 80 48V432L320 512H128L0 432V304 256 176zm400-48V106.6L306.2 48H141.8L48 106.6V128v21.4L141.8 208H306.2L400 149.4V128zM48 405.4L141.8 464H306.2L400 405.4V334l-80 50H128L48 334v71.4z"/></svg>
